app/dist/common/images/dermtech.svg

<svg height="18" width="18" xmlns="http://www.w3.org/2000/svg"><path d="m0 0h18v18h-18z" fill="#304588"/><path d="m4 6h2.5a2.5 2.5 0 0 1 2.5 2.5v1a2.5 2.5 0 0 1 -2.5 2.5h-2.5zm1 1h1.3c.94 0 1.7.76 1.7 1.7v.6c0 .94-.76 1.7-1.7 1.7h-1.3zm4.5-.38v-.62h5v.62h-2.2v5.38h-.6v-5.38z" fill="#fff" fill-rule="evenodd"/></svg>

<!-- by TradingView --><svg xmlns="http://www.w3.org/2000/svg" width="18" height="18"><path fill="#304588" d="M0 0h18v18H0z"/><path fill-rule="evenodd" d="M4 6h2.5A2.5 2.5 0 019 8.5v1A2.5 2.5 0 016.5 12H4V6zm1 1h1.3C7.24 7 8 7.76 8 8.7v.6c0 .94-.76 1.7-1.7 1.7H5V7zm4.5-.38V6h5v.62h-2.2V12h-.6V6.62H9.5z" fill="#fff"/></svg>
